X: 3488
T: Bicycle, The
R: slide
M: 12/8
K: Edorian
|:B2E E2F G2E E2B|B2E E2B A2A F2A|
B2E E2F G2E E2B|BAB d2B A3 F2A:|
|:B2e e2d B2A F2A|B2e e2f d3 B2A|
B2e e2d B2A d2B|ABA D2F A3 F2A:|

